48x48/apps/pingus-icon.svg

<svg viewBox="0 0 48 48"><defs><linearGradient id="linearGradient3764" x1="1" x2="47" gradientUnits="userSpaceOnUse" gradientTransform="matrix(0,-1,1,0,-1.5e-6,47.999998)"><stop stop-color="#57b1cf" stop-opacity="1"/><stop offset="1" stop-color="#67b8d3" stop-opacity="1"/></linearGradient><clipPath id="clipPath-676821770"><g transform="translate(0,-1004.3622)"><path d="m -24 13 c 0 1.105 -0.672 2 -1.5 2 -0.828 0 -1.5 -0.895 -1.5 -2 0 -1.105 0.672 -2 1.5 -2 0.828 0 1.5 0.895 1.5 2 z" transform="matrix(15.333333,0,0,11.5,414.99999,878.8622)" fill="#1890d0"/></g></clipPath><clipPath id="clipPath-686123521"><g transform="translate(0,-1004.3622)"><path d="m -24 13 c 0 1.105 -0.672 2 -1.5 2 -0.828 0 -1.5 -0.895 -1.5 -2 0 -1.105 0.672 -2 1.5 -2 0.828 0 1.5 0.895 1.5 2 z" transform="matrix(15.333333,0,0,11.5,414.99999,878.8622)" fill="#1890d0"/></g></clipPath><linearGradient id="linear0" gradientUnits="userSpaceOnUse" x1="6.905" y1="10.308" x2="6.712" y2="4.634" gradientTransform="matrix(1.026316,0,0,1.02,-0.178246,-0.135467)"><stop stop-color="#d5ecf1" stop-opacity="1"/><stop offset="1" stop-color="#f9f9f9" stop-opacity="1"/></linearGradient><linearGradient id="linear0" gradientUnits="userSpaceOnUse" x1="6.905" y1="10.308" x2="6.712" y2="4.634" gradientTransform="matrix(1.026316,0,0,1.02,-0.178246,-0.135467)"><stop stop-color="#d5ecf1" stop-opacity="1"/><stop offset="1" stop-color="#f9f9f9" stop-opacity="1"/></linearGradient></defs><g><path d="m 36.31 5 c 5.859 4.062 9.688 10.831 9.688 18.5 c 0 12.426 -10.07 22.5 -22.5 22.5 c -7.669 0 -14.438 -3.828 -18.5 -9.688 c 1.037 1.822 2.306 3.499 3.781 4.969 c 4.085 3.712 9.514 5.969 15.469 5.969 c 12.703 0 23 -10.298 23 -23 c 0 -5.954 -2.256 -11.384 -5.969 -15.469 c -1.469 -1.475 -3.147 -2.744 -4.969 -3.781 z m 4.969 3.781 c 3.854 4.113 6.219 9.637 6.219 15.719 c 0 12.703 -10.297 23 -23 23 c -6.081 0 -11.606 -2.364 -15.719 -6.219 c 4.16 4.144 9.883 6.719 16.219 6.719 c 12.703 0 23 -10.298 23 -23 c 0 -6.335 -2.575 -12.06 -6.719 -16.219 z" opacity="0.05"/><path d="m 41.28 8.781 c 3.712 4.085 5.969 9.514 5.969 15.469 c 0 12.703 -10.297 23 -23 23 c -5.954 0 -11.384 -2.256 -15.469 -5.969 c 4.113 3.854 9.637 6.219 15.719 6.219 c 12.703 0 23 -10.298 23 -23 c 0 -6.081 -2.364 -11.606 -6.219 -15.719 z" opacity="0.1"/><path d="m 31.25 2.375 c 8.615 3.154 14.75 11.417 14.75 21.13 c 0 12.426 -10.07 22.5 -22.5 22.5 c -9.708 0 -17.971 -6.135 -21.12 -14.75 a 23 23 0 0 0 44.875 -7 a 23 23 0 0 0 -16 -21.875 z" opacity="0.2"/></g><g><path d="m 24 1 c 12.703 0 23 10.297 23 23 c 0 12.703 -10.297 23 -23 23 -12.703 0 -23 -10.297 -23 -23 0 -12.703 10.297 -23 23 -23 z" fill="url(#linearGradient3764)" fill-opacity="1"/></g><g/><g><g clip-path="url(#clipPath-676821770)"><g transform="translate(1,1)"><g opacity="0.1"><!-- color: #67b8d3 --><g><path d="m 4.437 8.43 c 1.184 0.039 0.794 -0.119 0.842 -1.121 c 0.977 -0.742 0.775 -0.911 -0.073 -0.053 c -0.711 -0.034 -1.54 0.154 -1.029 -0.407 l 1.637 -1.51 c -0.637 -2.139 1.279 -3 2.292 -1.15 c 0.742 0.223 0.975 0.324 0.912 0.815 c -1.15 0.36 -1.494 -0.082 -1.45 0.743 c 0.088 0.531 2.8 1.428 0.98 1.414 l 0.186 1.031 c 1.659 0.691 0.323 1.529 -0.655 2.059 c -0.535 -0.409 -0.708 -0.214 -1.31 0.119 c -1.604 -0.084 -2.519 -0.602 -2.337 -1.938 m -0.001 -0.002" transform="matrix(3.543307,0,0,3.543307,0,0)" stroke-opacity="1" fill="#000" fill-rule="nonzero" stroke="#2d2d2d" stroke-linejoin="miter" stroke-linecap="butt" stroke-width="0.141" stroke-miterlimit="4"/><path d="m 5.24 8.389 c -0.095 0.019 -0.18 0.028 -0.262 0.032 c -0.012 0 -0.032 0.001 -0.044 0.002 c -0.025 0.001 -0.051 0.003 -0.074 0.004 c -0.032 0.001 -0.073 0.002 -0.108 0.003 c -0.022 0 -0.054 0 -0.084 0 c -0.073 0 -0.139 -0.001 -0.228 -0.003 c -0.055 0.415 -0.011 0.751 0.131 1.02 l 0.032 -0.007 c 0.387 -0.159 0.551 -0.602 0.636 -1.054 m 0.001 0" transform="matrix(3.543307,0,0,3.543307,0,0)" stroke-opacity="1" fill="#000" stroke="#2d2d2d" stroke-linejoin="miter" stroke-linecap="butt" stroke-width="0.141" stroke-miterlimit="4"/><path d="m 7.463 6.617 c -0.842 -0.028 -1.521 1.508 -0.106 3.355 c 0.203 -0.492 0.439 -1.603 1.337 -1.808 c -0.292 -1.087 -0.792 -1.529 -1.233 -1.547 m -0.001 0" transform="matrix(3.543307,0,0,3.543307,0,0)" stroke-opacity="1" fill="#000" stroke="#2d2d2d" stroke-linejoin="miter" stroke-linecap="butt" stroke-width="0.141" stroke-miterlimit="4"/><path d="m 8.089 4.154 l -0.024 0.026 c -0.569 0.082 -1.215 0.926 -0.385 1.035 l 0.118 -0.008 c 0.215 -0.053 0.602 -0.011 1.225 -0.206 c 0.063 -0.487 -0.17 -0.594 -0.913 -0.817 c -0.009 -0.011 -0.012 -0.022 -0.021 -0.033 m 0 0" transform="matrix(3.543307,0,0,3.543307,0,0)" stroke-opacity="1" fill="#000" stroke="#2d2d2d" stroke-linejoin="miter" stroke-linecap="butt" stroke-width="0.141" stroke-miterlimit="4"/><path d="m 26 15 c 0.008 0.363 -0.184 0.699 -0.496 0.883 c -0.313 0.184 -0.699 0.184 -1.012 0 c -0.313 -0.184 -0.5 -0.52 -0.492 -0.883 c -0.008 -0.363 0.18 -0.699 0.492 -0.883 c 0.313 -0.184 0.699 -0.184 1.012 0 c 0.313 0.184 0.504 0.52 0.496 0.883 m 0 0" fill="#000" stroke="none" fill-rule="nonzero" fill-opacity="1"/></g></g></g></g></g><g><g clip-path="url(#clipPath-686123521)"><!-- color: #67b8d3 --><g><path d="m 4.437 8.43 c 1.184 0.039 0.794 -0.119 0.842 -1.121 c 0.977 -0.742 0.775 -0.911 -0.073 -0.053 c -0.711 -0.034 -1.54 0.154 -1.029 -0.407 l 1.637 -1.51 c -0.637 -2.139 1.279 -3 2.292 -1.15 c 0.742 0.223 0.975 0.324 0.912 0.815 c -1.15 0.36 -1.494 -0.082 -1.45 0.743 c 0.088 0.531 2.8 1.428 0.98 1.414 l 0.186 1.031 c 1.659 0.691 0.323 1.529 -0.655 2.059 c -0.535 -0.409 -0.708 -0.214 -1.31 0.119 c -1.604 -0.084 -2.519 -0.602 -2.337 -1.938 m -0.001 -0.002" transform="matrix(3.543307,0,0,3.543307,0,0)" stroke-opacity="1" fill="url(#linear0)" fill-rule="nonzero" stroke="#2d2d2d" stroke-linejoin="miter" stroke-linecap="butt" stroke-width="0.141" stroke-miterlimit="4"/><path d="m 5.24 8.389 c -0.095 0.019 -0.18 0.028 -0.262 0.032 c -0.012 0 -0.032 0.001 -0.044 0.002 c -0.025 0.001 -0.051 0.003 -0.074 0.004 c -0.032 0.001 -0.073 0.002 -0.108 0.003 c -0.022 0 -0.054 0 -0.084 0 c -0.073 0 -0.139 -0.001 -0.228 -0.003 c -0.055 0.415 -0.011 0.751 0.131 1.02 l 0.032 -0.007 c 0.387 -0.159 0.551 -0.602 0.636 -1.054 m 0.001 0" transform="matrix(3.543307,0,0,3.543307,0,0)" stroke-opacity="1" fill="none" stroke="#2d2d2d" stroke-linejoin="miter" stroke-linecap="butt" stroke-width="0.141" stroke-miterlimit="4"/><path d="m 7.463 6.617 c -0.842 -0.028 -1.521 1.508 -0.106 3.355 c 0.203 -0.492 0.439 -1.603 1.337 -1.808 c -0.292 -1.087 -0.792 -1.529 -1.233 -1.547 m -0.001 0" transform="matrix(3.543307,0,0,3.543307,0,0)" stroke-opacity="1" fill="none" stroke="#2d2d2d" stroke-linejoin="miter" stroke-linecap="butt" stroke-width="0.141" stroke-miterlimit="4"/><path d="m 8.089 4.154 l -0.024 0.026 c -0.569 0.082 -1.215 0.926 -0.385 1.035 l 0.118 -0.008 c 0.215 -0.053 0.602 -0.011 1.225 -0.206 c 0.063 -0.487 -0.17 -0.594 -0.913 -0.817 c -0.009 -0.011 -0.012 -0.022 -0.021 -0.033 m 0 0" transform="matrix(3.543307,0,0,3.543307,0,0)" stroke-opacity="1" fill="none" stroke="#2d2d2d" stroke-linejoin="miter" stroke-linecap="butt" stroke-width="0.141" stroke-miterlimit="4"/><path d="m 26 15 c 0.008 0.363 -0.184 0.699 -0.496 0.883 c -0.313 0.184 -0.699 0.184 -1.012 0 c -0.313 -0.184 -0.5 -0.52 -0.492 -0.883 c -0.008 -0.363 0.18 -0.699 0.492 -0.883 c 0.313 -0.184 0.699 -0.184 1.012 0 c 0.313 0.184 0.504 0.52 0.496 0.883 m 0 0" fill="#2d2d2d" stroke="none" fill-rule="nonzero" fill-opacity="1"/></g></g></g><g><path d="m 40.03 7.531 c 3.712 4.084 5.969 9.514 5.969 15.469 0 12.703 -10.297 23 -23 23 c -5.954 0 -11.384 -2.256 -15.469 -5.969 4.178 4.291 10.01 6.969 16.469 6.969 c 12.703 0 23 -10.298 23 -23 0 -6.462 -2.677 -12.291 -6.969 -16.469 z" opacity="0.1"/></g></svg>

<?xml version="1.0" encoding="UTF-8" standalone="no"?>
<svg
   xmlns:dc="http://purl.org/dc/elements/1.1/"
   xmlns:cc="http://creativecommons.org/ns#"
   xmlns:rdf="http://www.w3.org/1999/02/22-rdf-syntax-ns#"
   xmlns:svg="http://www.w3.org/2000/svg"
   xmlns="http://www.w3.org/2000/svg"
   xmlns:sodipodi="http://sodipodi.sourceforge.net/DTD/sodipodi-0.dtd"
   xmlns:inkscape="http://www.inkscape.org/namespaces/inkscape"
   viewBox="0 0 48 48"
   id="svg2"
   version="1.1"
   inkscape:version="0.48.4 r9939"
   width="100%"
   height="100%"
   sodipodi:docname="pingus-icon.svg">
  <metadata
     id="metadata88">
    <rdf:RDF>
      <cc:Work
         rdf:about="">
        <dc:format>image/svg+xml</dc:format>
        <dc:type
           rdf:resource="http://purl.org/dc/dcmitype/StillImage" />
      </cc:Work>
    </rdf:RDF>
  </metadata>
  <sodipodi:namedview
     pagecolor="#ffffff"
     bordercolor="#666666"
     borderopacity="1"
     objecttolerance="10"
     gridtolerance="10"
     guidetolerance="10"
     inkscape:pageopacity="0"
     inkscape:pageshadow="2"
     inkscape:window-width="1375"
     inkscape:window-height="876"
     id="namedview86"
     showgrid="false"
     inkscape:zoom="4.9166667"
     inkscape:cx="-12"
     inkscape:cy="24"
     inkscape:window-x="65"
     inkscape:window-y="24"
     inkscape:window-maximized="1"
     inkscape:current-layer="svg2" />
  <defs
     id="defs4">
    <linearGradient
       id="linearGradient3764"
       x1="1"
       x2="47"
       gradientUnits="userSpaceOnUse"
       gradientTransform="matrix(0,-1,1,0,-1.5e-6,47.999998)">
      <stop
         stop-color="#57b1cf"
         stop-opacity="1"
         id="stop7" />
      <stop
         offset="1"
         stop-color="#67b8d3"
         stop-opacity="1"
         id="stop9" />
    </linearGradient>
    <clipPath
       id="clipPath-676821770">
      <g
         transform="translate(0,-1004.3622)"
         id="g12">
        <path
           d="m -24 13 c 0 1.105 -0.672 2 -1.5 2 -0.828 0 -1.5 -0.895 -1.5 -2 0 -1.105 0.672 -2 1.5 -2 0.828 0 1.5 0.895 1.5 2 z"
           transform="matrix(15.333333,0,0,11.5,414.99999,878.8622)"
           fill="#1890d0"
           id="path14" />
      </g>
    </clipPath>
    <clipPath
       id="clipPath-686123521">
      <g
         transform="translate(0,-1004.3622)"
         id="g17">
        <path
           d="m -24 13 c 0 1.105 -0.672 2 -1.5 2 -0.828 0 -1.5 -0.895 -1.5 -2 0 -1.105 0.672 -2 1.5 -2 0.828 0 1.5 0.895 1.5 2 z"
           transform="matrix(15.333333,0,0,11.5,414.99999,878.8622)"
           fill="#1890d0"
           id="path19" />
      </g>
    </clipPath>
    <linearGradient
       id="linear0"
       gradientUnits="userSpaceOnUse"
       x1="6.905"
       y1="10.308"
       x2="6.712"
       y2="4.634"
       gradientTransform="matrix(1.026316,0,0,1.02,-0.178246,-0.135467)">
      <stop
         stop-color="#d5ecf1"
         stop-opacity="1"
         id="stop22" />
      <stop
         offset="1"
         stop-color="#f9f9f9"
         stop-opacity="1"
         id="stop24" />
    </linearGradient>
    <linearGradient
       id="linearGradient26"
       gradientUnits="userSpaceOnUse"
       x1="6.905"
       y1="10.308"
       x2="6.712"
       y2="4.634"
       gradientTransform="matrix(1.026316,0,0,1.02,-0.178246,-0.135467)">
      <stop
         stop-color="#d5ecf1"
         stop-opacity="1"
         id="stop28" />
      <stop
         offset="1"
         stop-color="#f9f9f9"
         stop-opacity="1"
         id="stop30" />
    </linearGradient>
    <linearGradient
       id="linearGradient3764-5"
       x1="1"
       x2="47"
       gradientUnits="userSpaceOnUse"
       gradientTransform="matrix(0,-1,1,0,-1.5e-6,47.999998)">
      <stop
         stop-color="#b5945b"
         stop-opacity="1"
         id="stop7-3" />
      <stop
         offset="1"
         stop-color="#bb9e69"
         stop-opacity="1"
         id="stop9-8" />
    </linearGradient>
    <clipPath
       id="clipPath-899834956">
      <g
         transform="translate(0,-1004.3622)"
         id="g12-0">
        <path
           d="m -24 13 c 0 1.105 -0.672 2 -1.5 2 -0.828 0 -1.5 -0.895 -1.5 -2 0 -1.105 0.672 -2 1.5 -2 0.828 0 1.5 0.895 1.5 2 z"
           transform="matrix(15.333333,0,0,11.5,414.99999,878.8622)"
           fill="#1890d0"
           id="path14-2" />
      </g>
    </clipPath>
    <clipPath
       id="clipPath-909443126">
      <g
         transform="translate(0,-1004.3622)"
         id="g17-9">
        <path
           d="m -24 13 c 0 1.105 -0.672 2 -1.5 2 -0.828 0 -1.5 -0.895 -1.5 -2 0 -1.105 0.672 -2 1.5 -2 0.828 0 1.5 0.895 1.5 2 z"
           transform="matrix(15.333333,0,0,11.5,414.99999,878.8622)"
           fill="#1890d0"
           id="path19-7" />
      </g>
    </clipPath>
    <clipPath
       id="clipPath-909443126-7">
      <g
         transform="translate(0,-1004.3622)"
         id="g17-2">
        <path
           style="fill:#1890d0"
           inkscape:connector-curvature="0"
           d="m -24,13 c 0,1.105 -0.672,2 -1.5,2 -0.828,0 -1.5,-0.895 -1.5,-2 0,-1.105 0.672,-2 1.5,-2 0.828,0 1.5,0.895 1.5,2 z"
           transform="matrix(15.333333,0,0,11.5,414.99999,878.8622)"
           id="path19-3" />
      </g>
    </clipPath>
    <linearGradient
       id="linearGradient3759">
      <stop
         id="stop3761"
         offset="0"
         style="stop-color:#a75e15;stop-opacity:1;" />
      <stop
         id="stop3763"
         offset="1"
         style="stop-color:#ffffff;stop-opacity:0;" />
    </linearGradient>
    <linearGradient
       id="linearGradient3777">
      <stop
         id="stop3779"
         offset="0"
         style="stop-color:#e0dd00;stop-opacity:1;" />
      <stop
         id="stop3781"
         offset="1"
         style="stop-color:#000000;stop-opacity:0;" />
    </linearGradient>
    <clipPath
       id="clipPath-686123521-6">
      <g
         transform="translate(0,-1004.3622)"
         id="g17-1">
        <path
           style="fill:#1890d0"
           inkscape:connector-curvature="0"
           d="m -24,13 c 0,1.105 -0.672,2 -1.5,2 -0.828,0 -1.5,-0.895 -1.5,-2 0,-1.105 0.672,-2 1.5,-2 0.828,0 1.5,0.895 1.5,2 z"
           transform="matrix(15.333333,0,0,11.5,414.99999,878.8622)"
           id="path19-1" />
      </g>
    </clipPath>
    <linearGradient
       id="linear0-2"
       gradientUnits="userSpaceOnUse"
       x1="6.9050002"
       y1="10.308"
       x2="6.7119999"
       y2="4.6339998"
       gradientTransform="matrix(1.026316,0,0,1.02,-0.178246,-0.135467)">
      <stop
         stop-color="#d5ecf1"
         stop-opacity="1"
         id="stop22-9" />
      <stop
         offset="1"
         stop-color="#f9f9f9"
         stop-opacity="1"
         id="stop24-9" />
    </linearGradient>
  </defs>
  <g
     id="g44" />
  <g
     id="g3112">
    <g
       inkscape:label="shadows"
       id="layer2">
      <rect
         ry="13.03658"
         rx="13.03658"
         y="1"
         x="1"
         height="46"
         width="46"
         id="rect3007"
         style="opacity:0.1;fill:#000000;fill-opacity:1;fill-rule:nonzero;stroke:none" />
      <rect
         style="opacity:0.1;fill:#000000;fill-opacity:1;fill-rule:nonzero;stroke:none"
         id="rect3011"
         width="47"
         height="47"
         x="0.5"
         y="0.5"
         rx="13.319984"
         ry="13.319984" />
      <rect
         style="opacity:0.1;fill:#000000;fill-opacity:1;fill-rule:nonzero;stroke:none"
         id="rect3013"
         width="46.5"
         height="46.5"
         x="0.75"
         y="0.75"
         rx="13.178282"
         ry="13.178282" />
    </g>
    <g
       style="display:inline"
       inkscape:label="background-color"
       id="layer1">
      <rect
         transform="matrix(0,-1,1,0,0,0)"
         ry="12.753176"
         rx="12.753176"
         y="1.5"
         x="-46.5"
         height="45"
         width="45"
         id="rect2988"
         style="fill:#57b1cf;fill-opacity:1;fill-rule:nonzero;stroke:none" />
    </g>
  </g>
  <g
     transform="translate(0.01521905,0.00158998)"
     id="g66-3">
    <g
       clip-path="url(#clipPath-686123521-6)"
       id="g68-8">
      <!-- color: #67b8d3 -->
      <g
         id="g70-4">
        <path
           style="fill:url(#linear0-2);fill-rule:nonzero;stroke:#2d2d2d;stroke-width:0.141;stroke-linecap:butt;stroke-linejoin:miter;stroke-miterlimit:4;stroke-opacity:1"
           inkscape:connector-curvature="0"
           d="M 4.437,8.43 C 5.621,8.469 5.231,8.311 5.279,7.309 6.256,6.567 6.054,6.398 5.206,7.256 4.495,7.222 3.666,7.41 4.177,6.849 l 1.637,-1.51 c -0.637,-2.139 1.279,-3 2.292,-1.15 0.742,0.223 0.975,0.324 0.912,0.815 -1.15,0.36 -1.494,-0.082 -1.45,0.743 0.088,0.531 2.8,1.428 0.98,1.414 L 8.734,8.192 C 10.393,8.883 9.057,9.721 8.079,10.251 7.544,9.842 7.371,10.037 6.769,10.37 5.165,10.286 4.25,9.768 4.432,8.432 M 4.431,8.43"
           transform="scale(3.543307,3.543307)"
           stroke-miterlimit="4"
           id="path72-3" />
        <path
           style="fill:none;stroke:#2d2d2d;stroke-width:0.141;stroke-linecap:butt;stroke-linejoin:miter;stroke-miterlimit:4;stroke-opacity:1"
           inkscape:connector-curvature="0"
           d="M 5.24,8.389 C 5.145,8.408 5.06,8.417 4.978,8.421 4.966,8.421 4.946,8.422 4.934,8.423 4.909,8.424 4.883,8.426 4.86,8.427 4.828,8.428 4.787,8.429 4.752,8.43 c -0.022,0 -0.054,0 -0.084,0 C 4.595,8.43 4.529,8.429 4.44,8.427 4.385,8.842 4.429,9.178 4.571,9.447 L 4.603,9.44 C 4.99,9.281 5.154,8.838 5.239,8.386 m 0.001,0"
           transform="scale(3.543307,3.543307)"
           stroke-miterlimit="4"
           id="path74-8" />
        <path
           style="fill:none;stroke:#2d2d2d;stroke-width:0.141;stroke-linecap:butt;stroke-linejoin:miter;stroke-miterlimit:4;stroke-opacity:1"
           inkscape:connector-curvature="0"
           d="M 7.463,6.617 C 6.621,6.589 5.942,8.125 7.357,9.972 7.56,9.48 7.796,8.369 8.694,8.164 8.402,7.077 7.902,6.635 7.461,6.617 m -0.001,0"
           transform="scale(3.543307,3.543307)"
           stroke-miterlimit="4"
           id="path76-8" />
        <path
           style="fill:none;stroke:#2d2d2d;stroke-width:0.141;stroke-linecap:butt;stroke-linejoin:miter;stroke-miterlimit:4;stroke-opacity:1"
           inkscape:connector-curvature="0"
           d="M 8.089,4.154 8.065,4.18 C 7.496,4.262 6.85,5.106 7.68,5.215 L 7.798,5.207 C 8.013,5.154 8.4,5.196 9.023,5.001 9.086,4.514 8.853,4.407 8.11,4.184 8.101,4.173 8.098,4.162 8.089,4.151 m 0,0"
           transform="scale(3.543307,3.543307)"
           stroke-miterlimit="4"
           id="path78-2" />
        <path
           style="fill:#2d2d2d;fill-opacity:1;fill-rule:nonzero;stroke:none"
           inkscape:connector-curvature="0"
           d="m 26,15 c 0.008,0.363 -0.184,0.699 -0.496,0.883 -0.313,0.184 -0.699,0.184 -1.012,0 C 24.179,15.699 23.992,15.363 24,15 c -0.008,-0.363 0.18,-0.699 0.492,-0.883 0.313,-0.184 0.699,-0.184 1.012,0 0.313,0.184 0.504,0.52 0.496,0.883 m 0,0"
           id="path80-7" />
      </g>
    </g>
  </g>
</svg>
